src/assets/img/Star.svg

<svg width="20" height="20" viewBox="0 0 20 20" xmlns="http://www.w3.org/2000/svg">
<path fill="white" fill-rule="evenodd" clip-rule="evenodd" d="M6.56766 5.82935L8.97293 1.10743C9.25041 0.56269 9.92131 0.34384 10.4714 0.618614C10.6874 0.726487 10.8621 0.900945 10.9692 1.1157L13.2408 5.66945C13.4263 6.04144 13.7891 6.29543 14.2051 6.34463L18.9619 6.90715C19.6077 6.98351 20.0687 7.56381 19.9916 8.20328C19.9598 8.46664 19.8383 8.71141 19.6472 8.89721L15.8874 12.5515C15.7356 12.699 15.662 12.9083 15.6885 13.1173L16.3133 18.0508C16.4028 18.7571 15.8971 19.4014 15.1839 19.49C14.9136 19.5235 14.6394 19.4723 14.4001 19.3434L10.4278 17.2044C10.1405 17.0496 9.79448 17.0452 9.50314 17.1925L5.38757 19.2735C4.80835 19.5664 4.09904 19.3388 3.80329 18.7653C3.69263 18.5507 3.65182 18.3074 3.68648 18.0689L4.01541 15.8054C4.17629 14.6983 4.87113 13.738 5.878 13.2312L10.449 10.9302C10.5711 10.8688 10.6197 10.721 10.5577 10.6001C10.5096 10.5065 10.4067 10.4535 10.3017 10.4683L4.71134 11.2576C3.85676 11.3783 2.99008 11.1405 2.32006 10.6015L0.458041 9.10369C-0.0733219 8.67626 -0.154163 7.90321 0.277477 7.37704C0.478204 7.13235 0.766309 6.97351 1.08208 6.93346L5.85575 6.32788C6.16191 6.28904 6.42865 6.10225 6.56766 5.82935Z"/>
</svg>

<svg xmlns="http://www.w3.org/2000/svg" width="20" height="20"><path fill="#fff" fill-rule="evenodd" d="m6.568 5.83 2.405-4.723a1.12 1.12 0 0 1 1.996.009l2.272 4.553c.185.372.548.626.964.676l4.757.562a1.169 1.169 0 0 1 1.03 1.296 1.162 1.162 0 0 1-.345.694l-3.76 3.655a.671.671 0 0 0-.199.565l.625 4.934c.09.706-.416 1.35-1.13 1.439a1.313 1.313 0 0 1-.783-.147l-3.972-2.139a1 1 0 0 0-.925-.012l-4.115 2.081a1.183 1.183 0 0 1-1.585-.508 1.156 1.156 0 0 1-.117-.696l.33-2.264a3.439 3.439 0 0 1 1.862-2.574l4.571-2.3a.244.244 0 0 0 .109-.33.249.249 0 0 0-.256-.133l-5.59.79a3.12 3.12 0 0 1-2.392-.656L.458 9.104a1.22 1.22 0 0 1-.18-1.727c.2-.245.488-.403.804-.444l4.774-.605a.93.93 0 0 0 .712-.499Z" clip-rule="evenodd"/></svg>
